img/bottom-form.svg

<svg fill="none" height="584" viewBox="0 0 544 584" width="544" xmlns="http://www.w3.org/2000/svg" xmlns:xlink="http://www.w3.org/1999/xlink"><mask id="a" fill="#fff"><path clip-rule="evenodd" d="m272 160c44.183 0 80-35.817 80-80 0-44.1828-35.817-80-80-80s-80 35.8172-80 80c0 44.183 35.817 80 80 80zm0-50c16.569 0 30-13.4315 30-30s-13.431-30-30-30-30 13.4315-30 30 13.431 30 30 30z" fill="#fff" fill-rule="evenodd"/></mask><circle cx="80" cy="80" fill="#0022d5" r="79" stroke="#17203b" stroke-width="2"/><circle cx="80" cy="272" fill="#fff" r="79" stroke="#000" stroke-width="2"/><circle cx="80" cy="272" fill="#fff" r="53" stroke="#000" stroke-width="2"/><circle cx="80" cy="272" fill="#000" r="46" stroke="#000" stroke-width="2"/><circle cx="464" cy="272" fill="#47cbab" r="79" stroke="#000" stroke-width="2"/><path d="m343.378 304-140.378 109.947v-219.894z" fill="#fff" stroke="#000" stroke-linecap="round" stroke-linejoin="round" stroke-width="2"/><path d="m342.721 304.515-139.721 109.432v-140.698z" fill="#fff" stroke="#000" stroke-linecap="round" stroke-linejoin="round" stroke-width="2"/><path d="m302.38 336-99.38 77.945v-155.89z" fill="#ff6c69" stroke="#000" stroke-linecap="round" stroke-linejoin="round" stroke-width="2"/><circle cx="464" cy="80" fill="#fff" r="79" stroke="#000" stroke-width="2"/><rect fill="#000" height="200" rx="80" width="160" y="384"/><path d="m544 584v-206h-196l-156 122v84z" fill="#f9812a"/><circle cx="80" cy="464" r="59" stroke="#fff" stroke-width="2"/><path clip-rule="evenodd" d="m272 160c44.183 0 80-35.817 80-80 0-44.1828-35.817-80-80-80s-80 35.8172-80 80c0 44.183 35.817 80 80 80zm0-50c16.569 0 30-13.4315 30-30s-13.431-30-30-30-30 13.4315-30 30 13.431 30 30 30z" fill="#ffb82e" fill-rule="evenodd"/><path d="m350 80c0 43.078-34.922 78-78 78v4c45.287 0 82-36.713 82-82zm-78-78c43.078 0 78 34.9218 78 78h4c0-45.2873-36.713-82-82-82zm-78 78c0-43.0782 34.922-78 78-78v-4c-45.287 0-82 36.7127-82 82zm78 78c-43.078 0-78-34.922-78-78h-4c0 45.287 36.713 82 82 82zm28-78c0 15.464-12.536 28-28 28v4c17.673 0 32-14.3269 32-32zm-28-28c15.464 0 28 12.536 28 28h4c0-17.6731-14.327-32-32-32zm-28 28c0-15.464 12.536-28 28-28v-4c-17.673 0-32 14.3269-32 32zm28 28c-15.464 0-28-12.536-28-28h-4c0 17.6731 14.327 32 32 32z" fill="#292b31" mask="url(#a)"/><g fill="#fff"><path d="m322 80c0-1.1046.895-2 2-2h10c1.105 0 2 .8954 2 2s-.895 2-2 2h-10c-1.105 0-2-.8954-2-2z"/><path d="m205 61c0-1.1046.895-2 2-2h10c1.105 0 2 .8954 2 2s-.895 2-2 2h-10c-1.105 0-2-.8954-2-2z"/><path d="m230 112c0-1.105.895-2 2-2h10c1.105 0 2 .895 2 2s-.895 2-2 2h-10c-1.105 0-2-.895-2-2z"/><path d="m298.05 52.9494c-.781-.7811-.781-2.0474 0-2.8285l7.071-7.071c.781-.7811 2.048-.7811 2.829 0 .781.781.781 2.0474 0 2.8284l-7.071 7.0711c-.781.781-2.048.781-2.829 0z"/><path d="m330.414 61.3136c-.781-.781-.781-2.0474 0-2.8284l7.071-7.0711c.781-.781 2.048-.781 2.829 0 .781.7811.781 2.0474 0 2.8285l-7.071 7.071c-.781.7811-2.048.7811-2.829 0z"/><path d="m273.414 146.314c-.781-.781-.781-2.048 0-2.829l7.071-7.071c.781-.781 2.048-.781 2.829 0s.781 2.048 0 2.829l-7.071 7.071c-.781.781-2.048.781-2.829 0z"/><path d="m228.414 49.3136c-.781-.781-.781-2.0474 0-2.8284l7.071-7.0711c.781-.781 2.048-.781 2.829 0 .781.7811.781 2.0474 0 2.8285l-7.071 7.071c-.781.7811-2.048.7811-2.829 0z"/><path d="m251.364 14.3643c1.105 0 2 .8954 2 2v10c0 1.1045-.895 2-2 2s-2-.8955-2-2v-10c0-1.1046.895-2 2-2z"/><path d="m242 127c1.105 0 2 .895 2 2v10c0 1.105-.895 2-2 2s-2-.895-2-2v-10c0-1.105.895-2 2-2z"/><path d="m303 107c1.105 0 2 .895 2 2v10c0 1.105-.895 2-2 2s-2-.895-2-2v-10c0-1.105.895-2 2-2z"/><path d="m292.05 12.05c.781-.7811 2.048-.7811 2.829 0l7.071 7.071c.781.7811.781 2.0474 0 2.8285-.781.781-2.048.781-2.829 0l-7.071-7.0711c-.781-.7811-.781-2.0474 0-2.8284z"/><path d="m207.414 98.4142c.781-.781 2.048-.781 2.829 0l7.071 7.0708c.781.781.781 2.048 0 2.829s-2.048.781-2.829 0l-7.071-7.071c-.781-.781-.781-2.0477 0-2.8288z"/><path d="m320.414 105.414c.781-.781 2.048-.781 2.829 0l7.071 7.071c.781.781.781 2.048 0 2.829s-2.048.781-2.829 0l-7.071-7.071c-.781-.781-.781-2.048 0-2.829z"/></g></svg>

<svg width="544" height="584" viewBox="0 0 544 584" fill="none" xmlns="http://www.w3.org/2000/svg">
<circle cx="80" cy="80" r="79" fill="#0022D5" stroke="#17203B" stroke-width="2"/>
<circle cx="80" cy="272" r="79" fill="white" stroke="black" stroke-width="2"/>
<circle cx="80" cy="272" r="53" fill="white" stroke="black" stroke-width="2"/>
<circle cx="80" cy="272" r="46" fill="black" stroke="black" stroke-width="2"/>
<circle cx="464" cy="272" r="79" fill="#47CBAB" stroke="black" stroke-width="2"/>
<path d="M343.378 304L203 413.947V194.053L343.378 304Z" fill="white" stroke="black" stroke-width="2" stroke-linecap="round" stroke-linejoin="round"/>
<path d="M342.721 304.515L203 413.947V273.249L342.721 304.515Z" fill="white" stroke="black" stroke-width="2" stroke-linecap="round" stroke-linejoin="round"/>
<path d="M302.38 336L203 413.945V258.055L302.38 336Z" fill="#FF6C69" stroke="black" stroke-width="2" stroke-linecap="round" stroke-linejoin="round"/>
<circle cx="464" cy="80" r="79" fill="white" stroke="black" stroke-width="2"/>
<rect y="384" width="160" height="200" rx="80" fill="black"/>
<path d="M544 584V378H348L192 500V584H544Z" fill="#F9812A"/>
<circle cx="80" cy="464" r="59" stroke="white" stroke-width="2"/>
<mask id="path-13-inside-1_2301_23006" fill="white">
<path fill-rule="evenodd" clip-rule="evenodd" d="M272 160C316.183 160 352 124.183 352 80C352 35.8172 316.183 0 272 0C227.817 0 192 35.8172 192 80C192 124.183 227.817 160 272 160ZM272 110C288.569 110 302 96.5685 302 80C302 63.4315 288.569 50 272 50C255.431 50 242 63.4315 242 80C242 96.5685 255.431 110 272 110Z"/>
</mask>
<path fill-rule="evenodd" clip-rule="evenodd" d="M272 160C316.183 160 352 124.183 352 80C352 35.8172 316.183 0 272 0C227.817 0 192 35.8172 192 80C192 124.183 227.817 160 272 160ZM272 110C288.569 110 302 96.5685 302 80C302 63.4315 288.569 50 272 50C255.431 50 242 63.4315 242 80C242 96.5685 255.431 110 272 110Z" fill="#FFB82E"/>
<path d="M350 80C350 123.078 315.078 158 272 158V162C317.287 162 354 125.287 354 80H350ZM272 2C315.078 2 350 36.9218 350 80H354C354 34.7127 317.287 -2 272 -2V2ZM194 80C194 36.9218 228.922 2 272 2V-2C226.713 -2 190 34.7127 190 80H194ZM272 158C228.922 158 194 123.078 194 80H190C190 125.287 226.713 162 272 162V158ZM300 80C300 95.464 287.464 108 272 108V112C289.673 112 304 97.6731 304 80H300ZM272 52C287.464 52 300 64.536 300 80H304C304 62.3269 289.673 48 272 48V52ZM244 80C244 64.536 256.536 52 272 52V48C254.327 48 240 62.3269 240 80H244ZM272 108C256.536 108 244 95.464 244 80H240C240 97.6731 254.327 112 272 112V108Z" fill="#292B31" mask="url(#path-13-inside-1_2301_23006)"/>
<path d="M322 80C322 78.8954 322.895 78 324 78H334C335.105 78 336 78.8954 336 80C336 81.1046 335.105 82 334 82H324C322.895 82 322 81.1046 322 80Z" fill="white"/>
<path d="M205 61C205 59.8954 205.895 59 207 59H217C218.105 59 219 59.8954 219 61C219 62.1046 218.105 63 217 63H207C205.895 63 205 62.1046 205 61Z" fill="white"/>
<path d="M230 112C230 110.895 230.895 110 232 110H242C243.105 110 244 110.895 244 112C244 113.105 243.105 114 242 114H232C230.895 114 230 113.105 230 112Z" fill="white"/>
<path d="M298.05 52.9494C297.269 52.1683 297.269 50.902 298.05 50.1209L305.121 43.0499C305.902 42.2688 307.169 42.2688 307.95 43.0499C308.731 43.8309 308.731 45.0973 307.95 45.8783L300.879 52.9494C300.098 53.7304 298.831 53.7304 298.05 52.9494Z" fill="white"/>
<path d="M330.414 61.3136C329.633 60.5326 329.633 59.2662 330.414 58.4852L337.485 51.4141C338.266 50.6331 339.533 50.6331 340.314 51.4141C341.095 52.1952 341.095 53.4615 340.314 54.2426L333.243 61.3136C332.462 62.0947 331.195 62.0947 330.414 61.3136Z" fill="white"/>
<path d="M273.414 146.314C272.633 145.533 272.633 144.266 273.414 143.485L280.485 136.414C281.266 135.633 282.533 135.633 283.314 136.414C284.095 137.195 284.095 138.462 283.314 139.243L276.243 146.314C275.462 147.095 274.195 147.095 273.414 146.314Z" fill="white"/>
<path d="M228.414 49.3136C227.633 48.5326 227.633 47.2662 228.414 46.4852L235.485 39.4141C236.266 38.6331 237.533 38.6331 238.314 39.4141C239.095 40.1952 239.095 41.4615 238.314 42.2426L231.243 49.3136C230.462 50.0947 229.195 50.0947 228.414 49.3136Z" fill="white"/>
<path d="M251.364 14.3643C252.469 14.3643 253.364 15.2597 253.364 16.3643L253.364 26.3643C253.364 27.4688 252.469 28.3643 251.364 28.3643C250.259 28.3643 249.364 27.4688 249.364 26.3643L249.364 16.3643C249.364 15.2597 250.259 14.3643 251.364 14.3643Z" fill="white"/>
<path d="M242 127C243.105 127 244 127.895 244 129L244 139C244 140.105 243.105 141 242 141C240.895 141 240 140.105 240 139L240 129C240 127.895 240.895 127 242 127Z" fill="white"/>
<path d="M303 107C304.105 107 305 107.895 305 109L305 119C305 120.105 304.105 121 303 121C301.895 121 301 120.105 301 119L301 109C301 107.895 301.895 107 303 107Z" fill="white"/>
<path d="M292.05 12.05C292.831 11.2689 294.098 11.2689 294.879 12.05L301.95 19.121C302.731 19.9021 302.731 21.1684 301.95 21.9495C301.169 22.7305 299.902 22.7305 299.121 21.9495L292.05 14.8784C291.269 14.0973 291.269 12.831 292.05 12.05Z" fill="white"/>
<path d="M207.414 98.4142C208.195 97.6332 209.462 97.6332 210.243 98.4142L217.314 105.485C218.095 106.266 218.095 107.533 217.314 108.314C216.533 109.095 215.266 109.095 214.485 108.314L207.414 101.243C206.633 100.462 206.633 99.1953 207.414 98.4142Z" fill="white"/>
<path d="M320.414 105.414C321.195 104.633 322.462 104.633 323.243 105.414L330.314 112.485C331.095 113.266 331.095 114.533 330.314 115.314C329.533 116.095 328.266 116.095 327.485 115.314L320.414 108.243C319.633 107.462 319.633 106.195 320.414 105.414Z" fill="white"/>
</svg>
